public/icons/tokens/dpi.svg

<svg width="256" height="256" viewBox="0 0 256 256" fill="none" xmlns="http://www.w3.org/2000/svg">
<mask id="mask0" mask-type="alpha" maskUnits="userSpaceOnUse" x="1" y="0" width="255" height="256">
<path d="M1.57324 0.667282H255.353V255.332H1.57324V0.667282Z" fill="white"/>
</mask>
<g mask="url(#mask0)">
<path d="M255.353 127.999C255.353 198.323 198.543 255.332 128.463 255.332C58.3836 255.332 1.57324 198.323 1.57324 127.999C1.57324 57.6756 58.3836 0.667282 128.463 0.667282C198.543 0.667282 255.353 57.6756 255.353 127.999Z" fill="#8150E6"/>
</g>
<path d="M250.611 162.593L160.272 73.3845L108.794 63.7393L78.666 177.501L154.686 252.602C200.936 242.849 237.914 207.829 250.611 162.593Z" fill="#3C176B"/>
<path d="M117.509 167.53V97.1365H135.238C141.197 97.1365 146.67 97.8952 151.656 99.4134C156.64 100.932 160.957 103.293 164.605 106.498C165.106 106.937 165.588 107.399 166.059 107.876C166.12 98.3342 162.676 88.8252 157.803 80.2263C152.395 78.6912 146.828 77.9094 141.096 77.9094H98.084V167.442C104.621 167.516 111.005 168.05 117.509 167.53Z" fill="#6B42BD"/>
<path d="M191.97 111.219C188.887 103.742 184.775 97.5308 179.637 92.5818C174.497 87.6354 168.588 83.9543 161.908 81.535C160.551 81.0435 159.181 80.6161 157.803 80.2252C162.676 88.8241 166.12 98.3331 166.059 107.875C169.017 110.873 170.907 122.499 172.682 126.96L117.509 177.503V167.529C111.005 168.049 104.621 167.515 98.085 167.441V196.73H138.784C145.36 196.73 152.066 195.523 158.902 193.104C165.736 190.687 171.953 187.032 177.555 182.141C183.156 177.25 187.731 171.067 191.276 163.589C194.822 156.113 196.595 147.258 196.595 137.025C196.595 126.905 195.054 118.697 191.97 111.219Z" fill="#9B74EC"/>
<path d="M112.579 158.25C118.642 158.25 124.373 157.492 129.768 155.974C135.164 154.455 139.866 152.094 143.874 148.89C147.882 145.686 151.043 141.527 153.355 136.409C155.668 131.294 156.824 125.083 156.824 117.772C156.824 110.578 155.795 104.982 153.74 99.8086C151.683 94.6378 148.832 90.4483 145.185 87.2437C141.535 84.039 137.219 81.6775 132.235 80.1602C127.249 78.6421 121.776 77.8834 115.816 77.8834H98.0879V158.25H112.579ZM78.6631 58.6562H121.674C128.867 58.6562 135.804 59.8655 142.487 62.2821C149.166 64.7014 155.075 68.3825 160.215 73.3297C165.354 78.2788 169.466 84.4895 172.548 91.9656C175.632 99.4444 177.173 107.653 177.173 117.772C177.173 128.005 175.4 136.86 171.855 144.336C168.309 151.815 163.734 157.997 158.134 162.889C152.532 167.78 146.314 171.434 139.481 173.851C132.644 176.27 125.938 177.478 119.362 177.478H78.6631V58.6562Z" fill="white"/>
</svg>

<svg width="256" height="256" viewBox="0 0 256 256" fill="none" xmlns="http://www.w3.org/2000/svg"><mask id="a" mask-type="alpha" maskUnits="userSpaceOnUse" x="1" y="0" width="255" height="256"><path d="M1.573.667h253.78v254.665H1.573V.667Z" fill="#fff"/></mask><g mask="url(#a)"><path d="M255.353 127.999c0 70.324-56.81 127.333-126.89 127.333S1.573 198.323 1.573 127.999C1.573 57.676 58.383.667 128.463.667S255.353 57.676 255.353 128Z" fill="#8150E6"/></g><path d="m250.611 162.593-90.339-89.208-51.478-9.646-30.128 113.762 76.02 75.101c46.25-9.753 83.228-44.773 95.925-90.009Z" fill="#3C176B"/><path d="M117.509 167.53V97.136h17.729c5.959 0 11.432.76 16.418 2.277 4.984 1.519 9.301 3.88 12.949 7.085.501.439.983.901 1.454 1.378.061-9.542-3.383-19.05-8.256-27.65a60.885 60.885 0 0 0-16.707-2.317H98.084v89.533c6.537.074 12.921.608 19.425.088Z" fill="#6B42BD"/><path d="M191.97 111.219c-3.083-7.477-7.195-13.688-12.333-18.637-5.14-4.947-11.049-8.628-17.729-11.047a60.562 60.562 0 0 0-4.105-1.31c4.873 8.6 8.317 18.108 8.256 27.65 2.958 2.998 4.848 14.624 6.623 19.085l-55.173 50.543v-9.974c-6.504.52-12.888-.014-19.424-.088v29.289h40.699c6.576 0 13.282-1.207 20.118-3.626 6.834-2.417 13.051-6.072 18.653-10.963 5.601-4.891 10.176-11.074 13.721-18.552 3.546-7.476 5.319-16.331 5.319-26.564 0-10.12-1.541-18.328-4.625-25.806Z" fill="#9B74EC"/><path d="M112.579 158.25c6.063 0 11.794-.758 17.189-2.276 5.396-1.519 10.098-3.88 14.106-7.084 4.008-3.204 7.169-7.363 9.481-12.481 2.313-5.115 3.469-11.326 3.469-18.637 0-7.194-1.029-12.79-3.084-17.963-2.057-5.171-4.908-9.36-8.555-12.565-3.65-3.205-7.966-5.567-12.95-7.084-4.986-1.518-10.459-2.277-16.419-2.277H98.088v80.367h14.491ZM78.663 58.656h43.011c7.193 0 14.13 1.21 20.813 3.626 6.679 2.42 12.588 6.1 17.728 11.048 5.139 4.949 9.251 11.16 12.333 18.636 3.084 7.478 4.625 15.687 4.625 25.806 0 10.233-1.773 19.088-5.318 26.564-3.546 7.479-8.121 13.661-13.721 18.553-5.602 4.891-11.82 8.545-18.653 10.962-6.837 2.419-13.543 3.627-20.119 3.627H78.663V58.656Z" fill="#fff"/></svg>
